X: 15
T: LASSES TRUST IN PROVIDENCE
S: Mandy J Tulloch, Mid Yell
R: reel
B: Haand me doon da fiddle, 1979
Z: 2012 John Chambers <jc:trillian.mit.edu>
M: none
L: 1/8
K: D
A | vd2ud(ve f)def | d2ud(vf e)dBA | d2ud(ve f)de(uf | dB)AF E2E :|
|:\
vA(uAAB) ADFA | d2d2 BAB<d | vA(uAAB) ADFA | (vGF)uEuC v[D2A,2-][D2A,2] :|
%%begintext align
Dis is a very fine auld t\"un in D.  As far as we ken he wis
only fun in Unst bit naebody kens wha made him up.  Du'll
notice at da wan doon an tree up bow strokes fairly come
oot ida second half o' him.  He maks a fine dancin t\"un fir
da Shetland Reel.
%%endtext

%%sep 2 1 500
%%sep 1 1 500

